!! 00000] TT[WS
!!!OTL: Xiaoniao chuang
!!!ARE: Asia, China, Shanxi Cuoquan
!! Ethnic Group: Han
!! WII, 120
!!!SCT: J0584
!!!YEM: Copyright 1995, estate of Helmut Schaffrath.
**kern
*ICvox
*Ivox
*M2/4
*k[b-]
*F:
{8dd
4dd
8cc
=1
8ff
8dd
4cc
=2
8cc
8ff
8dd
8cc
=3
8cc
4a
8g
=4
4a
4r}
=5
{8dd
4dd
8cc
=6
8ff
8dd
4cc
=7
8cc
8ff
8dd
8cc
=8
8cc
4a
8g
=9
4a
4r}
=10
{8a
8g
4f
=11
8.cc
16dd
8cc
8a
=12
8cc
4a
8g
=13
4a
4r}
=14
{4cc
8.a
16g
=15
8f
8a
8g
8f
=16
8e
4d
8c
=17
4d
4r}
==
!!!AGN: Xiaodiao. Qingge, Aisu
!!!ONB: ESAC (Essen Associative Code) Database: CHINA
!!!AMT: simple duple
!!!AIN: vox
!!!EED: Helmut Schaffrath
!!!EEV: 1.0
*-
